X: 224
T: The Pandora
%R: march, reel
B: "Twenty Four Country Dances for the Year 1793", Preston & Son, eds. p.92
F: http://www.vwml.org/browse/browse-collections-dance-tune-books/browse-prestons1793# 2014-8-7
Z: 2014 John Chambers <jc:trillian.mit.edu>
N: The rhythms are wrong at the strain boundaries; not fixed.
M: 2/4
L: 1/8
K: Bb
F |\
BB2c | dB2B | cdef | e2d2 |\
fff^f | g/^f/g/f/ ge | dfce | dB B :|
|:\
f2dB | f2cA | Bcde | d2c2 |\
f2dB | g2fe | dcBA | B2B2 :|
% = = = = = = = = = = = = = = = = = = = = = = = = =
%%begintext align
%% The 1st Lady hey with the 2d & 3d Gent.n .|
%% The 1st Gent.n hey with the 2d & 3d Ladies :|
%% Lead down the middle up again & cast
%% off :|. Right & left at top :|:
%%endtext
% = = = = = = = = = = = = = = = = = = = = = = = = =

%%sep 1 1 500
%%sep 1 1 500
